X: 125
M:2/4
L:1/16
K:D
v((3A,B,C)|\
"4"D2u"0"DvE F2FG | A2Bc d2de | fefb afdf | eafd "4"edBA |
|:zv(d/e/|\
f)edf (ec)z vA | uBdcB (AF)z v(d/e/ | f)edf (ec)zve | ufa^gb a2zv(d/e/ |
f)edf (ec)z vA | uBdcB (AF)z uE | vD2uDvE FAdA | Bdc"4"e d2 :|


